art/samcoupe.svg

<?xml version="1.0" encoding="utf-8"?>
<!-- Generator: Adobe Illustrator 13.0.0, SVG Export Plug-In . SVG Version: 6.00 Build 14948)  -->
<!DOCTYPE svg PUBLIC "-//W3C//DTD SVG 1.1//EN" "http://www.w3.org/Graphics/SVG/1.1/DTD/svg11.dtd">
<svg version="1.1" id="Layer_2" xmlns="http://www.w3.org/2000/svg" xmlns:xlink="http://www.w3.org/1999/xlink" x="0px" y="0px"
	 width="566.924px" height="121.752px" viewBox="0 0 566.924 121.752" enable-background="new 0 0 566.924 121.752"
	 xml:space="preserve">
<path fill="#0849FF" d="M78.46,38.624c0-6.959-3.479-11.309-9.569-11.309c-6.09,0-7.83,4.35-7.83,9.569
	c0,5.22,4.35,9.57,20.879,17.4c16.529,7.83,20.01,18.27,20.01,31.319S91.51,119.53,68.021,119.53
	c-23.489,0-33.059-14.789-33.059-36.539c15.66,0,20.879,0,20.879,0c0,8.7,4.35,13.05,11.31,13.05c6.959,0,9.57-5.219,9.57-9.569
	c0-4.349,0.698-6.61-24.359-19.14c-15.66-7.829-16.53-25.229-16.53-30.449c0-5.219,2.61-21.748,16.53-29.578
	c13.918-7.83,33.928-2.61,41.757,7.83c7.831,10.439,5.22,23.488,5.22,23.488C90.639,38.624,78.46,38.624,78.46,38.624z"/>
<g>
	<g>
		<path fill="#0849FF" d="M266.373,4.695h-25.229v62.637L200.256,3.825h-25.229v66.118L132.398,4.695h-26.099l0.871,114.835h28.708
			v-17.398h25.229l10.439,16.529h32.189c0,0,0-48.719,0-55.679l36.539,56.548h28.708V62.982l36.539,55.679h33.929L266.373,4.695z
			 M135.878,79.512V62.982l11.309,16.529H135.878z"/>
	</g>
</g>
<path fill="#0849FF" d="M344.67,117.79L272.463,4.695h145.284l-33.929,53.938c0,0-8.7-5.219-20.01,12.18
	c-11.309,17.4-6.089,24.359-5.22,26.969C355.11,103.871,344.67,117.79,344.67,117.79z"/>
<g>
	<g>
		<path fill="#C60000" d="M518.911,55.825c-3.624,1.885-8.99,0.725-10.004-5.219c12.613-8.41,15.948-13.195,17.109-19.864
			c1.159-6.669-4.786-6.96-10.875-3.19s-14.353,13.484-14.644,25.808c-3.914,5.655-7.974,12.18-14.353,11.89
			c7.248-13.485,8.699-20.008,7.684-24.793c-1.014-4.785-6.234-4.785-18.123,13.049c1.159-10.729,5.653-20.298,6.524-22.908
			c0.869-2.61,1.014-4.785-1.742-4.06c-2.752,0.725-6.378,7.249-11.162,19.138c-4.785,11.889-12.47,22.472-14.788,25.228
			c-2.32,2.755-6.236,3.914-5.946-3.336c0.291-7.249,4.93-13.048,5.946-16.237c1.015-3.19-0.726-8.555-2.756-7.25
			c-2.03,1.305-8.555,13.774-11.744,19.283c-3.189,5.51-7.104,10.584-8.554,12.034c-1.449,1.449-4.351,1.015-3.19-3.479
			c1.16-4.495,4.204-9.134,5.655-11.454c1.45-2.32,4.495-7.104,1.305-8.409s-10.875,2.755-13.483,20.443
			c-2.175,4.494-4.931,7.395-8.265,8.554c1.305-6.38,2.899-22.037-3.334-18.993c1.015-3.479-0.727-5.074-4.061-4.494
			c-3.335,0.58-17.108,8.41-17.979,25.952c-3.045,5.365-10.729,12.18-14.789,12.18c-4.059,0-6.379-3.626-6.089-7.539
			c0.29-3.915,5.364-9.28,7.829-10.439c0.871,2.175,2.319,2.03,3.19,2.03c0.87,0,3.624-3.19,4.639-8.12s0.436-7.394-2.029-8.265
			c-2.464-0.869-9.279,3.479-13.339,9.28c-4.06,5.799-11.02,17.107-2.175,27.111c8.845,10.005,17.688-0.869,24.068-12.758
			c1.739,6.523,6.669,9.278,10.293,9.278c3.625,0,9.425-4.495,11.744-9.713c3.48,0.144,8.409-4.351,10.584-8.555
			c-0.145,4.639,5.655,8.989,9.136,8.265c3.479-0.727,7.974-9.426,10.729-15.369c0,7.685-0.436,13.484,5.075,13.339
			c5.509-0.146,14.063-15.804,23.487-33.058c-4.35,21.023-7.539,28.418-8.265,34.507c-0.725,6.089,0.58,15.079,3.188,15.079
			c2.611,0,4.932-12.904,5.656-24.358c5.509-1.595,6.67-2.029,7.684-2.029c1.017,0,4.785,1.596,10.438-2.465
			c5.656-4.06,8.989-9.279,13.05-14.644c3.045,7.395,8.264,10.004,16.818,5.22c8.554-4.785,13.049-18.124,13.774-21.458
			C527.902,48.866,522.535,53.94,518.911,55.825z M406.112,82.358c-0.289,5.654-4.205,7.249-5.944,7.249s-4.929-0.289-4.929-5.8
			c0-5.508,4.929-12.033,10.148-17.108c2.03-1.884-0.146,3.045-0.725,8.554C404.081,80.764,404.951,83.083,406.112,82.358z
			 M474.691,66.265c1.595-8.409,7.828-17.688,10.874-17.688c3.043,0-0.871,9.569-2.61,13.049
			C481.215,65.105,478.315,65.396,474.691,66.265z M517.752,31.323c2.754-2.32,3.914,1.015,1.159,4.93
			c-2.753,3.914-8.845,9.569-10.439,10.149C509.198,38.718,514.996,33.643,517.752,31.323z"/>
	</g>
</g>
<path fill="#C60000" d="M508.327,23.784c0.145-3.625,2.029-8.554,5.365-12.468C517.027,7.4,522.825,1.311,525,1.021
	c2.176-0.29,3.191,1.885,3.191,5.365c0,3.479,0,4.639-2.466,6.524c-2.465,1.885-10.584,7.684-11.888,8.989
	C512.531,23.204,508.182,27.698,508.327,23.784z"/>
</svg>

<?xml version="1.0" standalone="no"?><!-- Generator: Gravit.io --><svg xmlns="http://www.w3.org/2000/svg" xmlns:xlink="http://www.w3.org/1999/xlink" style="isolation:isolate" viewBox="0 0 566.924 121.752" width="566.924" height="121.752"><path d=" M 78.46 38.624 C 78.46 31.665 74.981 27.315 68.891 27.315 C 62.801 27.315 61.061 31.665 61.061 36.884 C 61.061 42.104 65.411 46.454 81.94 54.284 C 98.469 62.114 101.95 72.554 101.95 85.603 C 101.95 98.652 91.51 119.53 68.021 119.53 C 44.532 119.53 34.962 104.741 34.962 82.991 C 50.622 82.991 55.841 82.991 55.841 82.991 C 55.841 91.691 60.191 96.041 67.151 96.041 C 74.11 96.041 76.721 90.822 76.721 86.472 C 76.721 82.123 77.419 79.862 52.362 67.332 C 36.702 59.503 35.832 42.103 35.832 36.883 C 35.832 31.664 38.442 15.135 52.362 7.305 C 66.28 -0.525 86.29 4.695 94.119 15.135 C 101.95 25.574 99.339 38.623 99.339 38.623 C 90.639 38.624 78.46 38.624 78.46 38.624 Z " fill="rgb(255,255,255)"/><g id="null"><g id="null"><path d=" M 266.373 4.695 L 241.144 4.695 L 241.144 67.332 L 200.256 3.825 L 175.027 3.825 L 175.027 69.943 L 132.398 4.695 L 106.299 4.695 L 107.17 119.53 L 135.878 119.53 L 135.878 102.132 L 161.107 102.132 L 171.546 118.661 L 203.735 118.661 C 203.735 118.661 203.735 69.942 203.735 62.982 L 240.274 119.53 L 268.982 119.53 L 268.982 62.982 L 305.521 118.661 L 339.45 118.661 L 266.373 4.695 L 266.373 4.695 Z  M 135.878 79.512 L 135.878 62.982 L 147.187 79.511 L 135.878 79.511 L 135.878 79.512 Z " fill="rgb(255,255,255)"/></g></g><path d=" M 344.67 117.79 L 272.463 4.695 L 417.747 4.695 L 383.818 58.633 C 383.818 58.633 375.118 53.414 363.808 70.813 C 352.499 88.213 357.719 95.172 358.588 97.782 C 355.11 103.871 344.67 117.79 344.67 117.79 Z " fill="rgb(255,255,255)"/><g id="null"><g id="null"><path d=" M 518.911 55.825 C 515.287 57.71 509.921 56.55 508.907 50.606 C 521.52 42.196 524.855 37.411 526.016 30.742 C 527.175 24.073 521.23 23.782 515.141 27.552 C 509.052 31.322 500.788 41.036 500.497 53.36 C 496.583 59.015 492.523 65.54 486.144 65.25 C 493.392 51.765 494.843 45.242 493.828 40.457 C 492.814 35.672 487.594 35.672 475.705 53.506 C 476.864 42.777 481.358 33.208 482.229 30.598 C 483.098 27.988 483.243 25.813 480.487 26.538 C 477.735 27.263 474.109 33.787 469.325 45.676 C 464.54 57.565 456.855 68.148 454.537 70.904 C 452.217 73.659 448.301 74.818 448.591 67.568 C 448.882 60.319 453.521 54.52 454.537 51.331 C 455.552 48.141 453.811 42.776 451.781 44.081 C 449.751 45.386 443.226 57.855 440.037 63.364 C 436.848 68.874 432.933 73.948 431.483 75.398 C 430.034 76.847 427.132 76.413 428.293 71.919 C 429.453 67.424 432.497 62.785 433.948 60.465 C 435.398 58.145 438.443 53.361 435.253 52.056 C 432.063 50.751 424.378 54.811 421.77 72.499 C 419.595 76.993 416.839 79.894 413.505 81.053 C 414.81 74.673 416.404 59.016 410.171 62.06 C 411.186 58.581 409.444 56.986 406.11 57.566 C 402.775 58.146 389.002 65.976 388.131 83.518 C 385.086 88.883 377.402 95.698 373.342 95.698 C 369.283 95.698 366.963 92.072 367.253 88.159 C 367.543 84.244 372.617 78.879 375.082 77.72 C 375.953 79.895 377.401 79.75 378.272 79.75 C 379.142 79.75 381.896 76.56 382.911 71.63 C 383.926 66.7 383.347 64.236 380.882 63.365 C 378.418 62.496 371.603 66.844 367.543 72.645 C 363.483 78.444 356.523 89.752 365.368 99.756 C 374.213 109.761 383.056 98.887 389.436 86.998 C 391.175 93.521 396.105 96.276 399.729 96.276 C 403.354 96.276 409.154 91.781 411.473 86.563 C 414.953 86.707 419.882 82.212 422.057 78.008 C 421.912 82.647 427.712 86.997 431.193 86.273 C 434.672 85.546 439.167 76.847 441.922 70.904 C 441.922 78.589 441.486 84.388 446.997 84.243 C 452.506 84.097 461.06 68.439 470.484 51.185 C 466.134 72.208 462.945 79.603 462.219 85.692 C 461.494 91.781 462.799 100.771 465.407 100.771 C 468.018 100.771 470.339 87.867 471.063 76.413 C 476.572 74.818 477.733 74.384 478.747 74.384 C 479.764 74.384 483.532 75.98 489.185 71.919 C 494.841 67.859 498.174 62.64 502.235 57.275 C 505.28 64.67 510.499 67.279 519.053 62.495 C 527.607 57.71 532.102 44.371 532.827 41.037 C 527.902 48.866 522.535 53.94 518.911 55.825 Z  M 406.112 82.358 C 405.823 88.012 401.907 89.607 400.168 89.607 C 398.429 89.607 395.239 89.318 395.239 83.807 C 395.239 78.299 400.168 71.774 405.387 66.699 C 407.417 64.815 405.241 69.744 404.662 75.253 C 404.081 80.764 404.951 83.083 406.112 82.358 Z  M 474.691 66.265 C 476.286 57.856 482.519 48.577 485.565 48.577 C 488.608 48.577 484.694 58.146 482.955 61.626 C 481.215 65.105 478.315 65.396 474.691 66.265 Z  M 517.752 31.323 C 520.506 29.003 521.666 32.338 518.911 36.253 C 516.158 40.167 510.066 45.822 508.472 46.402 C 509.198 38.718 514.996 33.643 517.752 31.323 Z " fill="rgb(255,255,255)"/></g></g><path d=" M 508.327 23.784 C 508.472 20.159 510.356 15.23 513.692 11.316 C 517.027 7.4 522.825 1.311 525 1.021 C 527.176 0.731 528.191 2.906 528.191 6.386 C 528.191 9.865 528.191 11.025 525.725 12.91 C 523.26 14.795 515.141 20.594 513.837 21.899 C 512.531 23.204 508.182 27.698 508.327 23.784 Z " fill="rgb(255,255,255)"/></svg>
